icons/checkmarx.svg

<?xml version="1.0" standalone="no"?>
<!DOCTYPE svg PUBLIC "-//W3C//DTD SVG 1.0//EN" "http://www.w3.org/TR/2001/REC-SVG-20010904/DTD/svg10.dtd">
<svg xmlns="http://www.w3.org/2000/svg" xmlns:xlink="http://www.w3.org/1999/xlink" id="body_1" width="256" height="192">

<g transform="matrix(0.5 0 0 0.5 0 0)">
	<g transform="matrix(0.5752809 0 0 0.5752809 -0 158.86095)">
        <path transform="matrix(1 0 0 1 -55 -52.39)"  d="M613.67 83.41C 606.38 83.41 600.6 84.93 596.8 88.73L596.8 88.73L592.39 93.14L586.9 93.14C 582.77 86.65 575.51 83.41 565.02 83.41C 557.72003 83.41 551.94 84.93 548.14 88.73L548.14 88.73L543.74 93.14L539.33 93.14L537.2 84.93L522 84.93L522 164.93L542.52 164.93L542.52 115.94C 542.52 106.51 547.39 101.65 557.12 101.65C 566.24 101.65 570.49 106.06 570.49 115.94L570.49 115.94L570.49 164.89L591 164.89L591 115.64L591.17 115.82C 591.17 106.479996 596.07 101.65 605.76 101.65C 614.88 101.65 619.14 106.06 619.14 115.94L619.14 115.94L619.14 164.89L639.66003 164.89L639.66003 110.47C 639.66003 92.380005 631.15 83.41 613.66003 83.41L613.66003 83.41L613.67 83.41zM745.25 147.56L767.25 147.56L767.25 102.1L747.84 102.1L747.84 84.93L782 84.93L784 93.14L788.55 93.14L793 88.73C 796.65 84.93 802.43 83.41 809.88 83.41L809.88 83.41L822.8 83.41L822.8 101.8L802.56 101.8C 792.83 101.8 787.82 106.51 787.82 115.18L787.82 115.18L787.82 147.56L813.35004 147.56L813.35004 164.89L745.25006 164.89zM688.51 151.06C 699 151.06 704.93 145.58 704.93 136.01L704.93 136.01L704.93 131.01L689.27 131.01C 680.60004 131.01 676.19 134.65999 676.19 141.34999C 676.19 147.27998 679.69 151.07999 688.51 151.07999zM655.37 143.3C 655.37 127.5 665.86 119.130005 684.1 119.130005L684.1 119.130005L704.93 119.130005L704.93 113.2C 704.93 103.32 700.52 99.2 691.39996 99.2C 683.63995 99.2 678.17 102.2 677.56995 109.67999L677.56995 109.67999L659 109.67999C 659.61 93.119995 671.16 83.38999 693.05 83.38999C 714.94 83.38999 725.43 92.80999 725.43 112.26999L725.43 112.26999L725.43 164.87L709.64 164.87L707.64 156.65999L703.23004 156.65999L698.82007 161.06999C 695.18005 164.70999 689.4001 166.39 681.6501 166.39C 664.4701 166.39 655.3501 158.18 655.3501 143.28zM458.56 131.3L449.56 131.3L449.56 164.9L429.07 164.9L429.07 52.39L449.59 52.39L449.59 113.05L458.86 113.05L479.86 84.93L503.27 84.93L476 122.18L504.12 164.89L480 164.89zM334.11 124.920006C 334.11 96.79001 347.18 83.420006 372.11 83.420006C 394.90997 83.420006 406.91998 94.670006 407.52997 115.490005L407.52997 115.490005L387.62 115.490005C 386.69998 105.310005 381.53 100.75001 372.11 100.75001C 360.4 100.75001 355.24 107.75001 355.24 124.920006C 355.24 142.09 360.4 149.09001 372.11 149.09001C 381.68997 149.09001 387.00998 144.53001 387.77 133.43001L387.77 133.43001L408 133.43001C 407.39 155.01001 395.07 166.43001 372.12 166.43001C 347.19 166.43001 334.12 152.90001 334.12 124.93001zM296.9 115.490005C 296.59 104.55 291.27 98.62 280.63 98.62C 270.45 98.62 264.82 103.94 263 115.490005zM242.31999 124.920006C 242.31999 96.79001 255.54999 83.420006 280.63 83.420006C 306.63 83.420006 318.63 97.420006 315.75 128.42001L315.75 128.42001L262.54 128.42001C 263.30002 144.23001 268.93002 150.91002 280.78 150.91002C 289.45 150.91002 295.22 147.42001 296.59 140.27002L296.59 140.27002L315.44 140.27002C 313.62 156.84003 301 166.42001 280.17 166.42001C 255.40001 166.42001 242.32 152.89001 242.32 124.92001zM152.77 52.39L173.29001 52.39L173.29001 79L171.47 92.07L175.73 93.14L180.14 88.729996C 183.94 84.92999 189.26 83.409996 196.4 83.409996C 213.57999 83.409996 221.78 92.409996 221.78 110.46999L221.78 110.46999L221.78 164.88998L201.26 164.88998L201.26 115.94C 201.26 106.060005 197.01 101.65 187.89 101.65C 178.16 101.65 173.29 106.51 173.29 115.94L173.29 115.94L173.29 164.89L152.77 164.89zM55 112.44C 55 74.29 67.31 57.570004 95.44 57.570004C 120.67 57.570004 132.83 71.25 133.89 99.83L133.89 99.83L113.07 99.83C 112.31 84.020004 106.83 76.72 95.44 76.72C 82.060005 76.72 76.740005 86.6 76.740005 112.44C 76.740005 139.05 81.740005 148.17 95.44 148.17C 107.14 148.17 112.44 141.63 113.37 124.759995L113.37 124.759995L134.5 124.759995C 133.28 153.64 120.67 167.31999 95.44 167.31999C 67.31 167.32 55 150.6 55 112.44" stroke="none" fill="#2B347B" fill-rule="nonzero" />
        <path transform="matrix(1 0 0 1 -55 -52.39)"  d="M927.57 62.93L881.87 112.369995C 880.885 113.29366 879.3655 113.336586 878.33 112.46999L878.33 112.46999L854.85 85.25L854.73 85.12C 852.696 83.08345 849.8956 82.00205 847.0208 82.14303C 844.14594 82.28401 841.46484 83.63421 839.63995 85.86C 837.99243 87.857315 837.192 90.420074 837.41 93C 837.61755 95.575386 838.7466 97.989624 840.58997 99.8L840.58997 99.8L867.58997 123.05C 868.0588 123.52774 868.321 124.17066 868.31995 124.840004C 868.32367 125.47224 868.09607 126.08401 867.67993 126.560005L867.67993 126.560005L840.67993 149.8L840.55994 149.92C 838.5964 151.89554 837.4745 154.555 837.42993 157.34C 837.3672 160.17188 838.5083 162.89754 840.56995 164.84C 841.5266 165.70859 842.6397 166.38731 843.85 166.84C 846.2726 167.76099 848.95245 167.73958 851.36 166.78C 852.65234 166.25298 853.82306 165.46683 854.8 164.47L854.8 164.47L878.26996 137.26001C 879.25195 136.35094 880.75757 136.31662 881.77997 137.18001L881.77997 137.18001L905.26996 164.42001L905.37994 164.54001C 908.23236 167.3989 912.50507 168.3013 916.26996 166.84001C 917.47876 166.39044 918.5892 165.71129 919.54 164.84001C 921.6171 162.90755 922.76434 160.17612 922.69 157.34001C 922.638 154.52415 921.49426 151.8386 919.5 149.85L919.5 149.85L892.5 126.630005C 892.0312 126.15227 891.769 125.509346 891.77 124.840004C 891.76056 124.195305 892.0006 123.5719 892.44 123.100006L892.44 123.100006L941.83 77.46001C 943.6461 75.67207 944.76935 73.29805 945 70.76C 945.21893 68.16772 944.419 65.592155 942.77 63.58C 940.93005 61.35298 938.2357 60.005806 935.35004 59.870003L935.35004 59.870003L934.88007 59.870003C 932.1423 59.88713 929.52344 60.991493 927.60004 62.940002" stroke="none" fill="#4096D2" fill-rule="nonzero" />
        <path transform="matrix(1 0 0 1 -55 -52.39)"  d="M945 70.76C 945.21893 68.16772 944.419 65.592155 942.77 63.58C 940.93005 61.35298 938.2357 60.005806 935.35004 59.870003L935.35004 59.870003L934.88007 59.870003C 932.1423 59.88713 929.52344 60.991493 927.60004 62.940002L927.60004 62.940002L881.9 112.380005C 880.91504 113.30367 879.3955 113.346596 878.36005 112.48L878.36005 112.48L854.85 85.25L854.73 85.12C 852.696 83.08345 849.8956 82.00205 847.0208 82.14303C 844.14594 82.28401 841.46484 83.63421 839.63995 85.86C 837.99243 87.857315 837.192 90.420074 837.41 93C 837.61755 95.575386 838.7466 97.989624 840.58997 99.8L840.58997 99.8L861.20996 117.560005L869.04 124.3C 875.56006 129.92891 885.2683 129.761 891.58997 123.91L891.58997 123.91L897.58997 118.32001L941.8 77.46001C 943.63 75.67866 944.76465 73.302986 945 70.76" stroke="none" fill="#F05680" fill-rule="nonzero" />
	</g>
</g>
</svg>

<svg id="Layer_1" data-name="Layer 1" xmlns="http://www.w3.org/2000/svg" viewBox="0 0 890 115.21"><defs><style>.cls-1{fill:#2b347b;}.cls-2{fill:#4096d2;}.cls-3{fill:#f05680;}</style></defs><path class="cls-1" d="M613.67,83.41c-7.29,0-13.07,1.52-16.87,5.32l-4.41,4.41H586.9c-4.13-6.49-11.39-9.73-21.88-9.73-7.3,0-13.08,1.52-16.88,5.32l-4.4,4.41h-4.41l-2.13-8.21H522v80h20.52V115.94c0-9.43,4.87-14.29,14.6-14.29,9.12,0,13.37,4.41,13.37,14.29v48.95H591V115.64l.17.18c0-9.34,4.9-14.17,14.59-14.17,9.12,0,13.38,4.41,13.38,14.29v48.95h20.52V110.47c0-18.09-8.51-27.06-26-27.06m131.58,64.15h22V102.1H747.84V84.93H782l2,8.21h4.55L793,88.73c3.65-3.8,9.43-5.32,16.88-5.32h12.92V101.8H802.56c-9.73,0-14.74,4.71-14.74,13.38v32.38h25.53v17.33h-68.1Zm-56.74,3.5c10.49,0,16.42-5.48,16.42-15.05v-5H689.27c-8.67,0-13.08,3.65-13.08,10.34,0,5.93,3.5,9.73,12.32,9.73m-33.14-7.76c0-15.8,10.49-24.17,28.73-24.17h20.83V113.2c0-9.88-4.41-14-13.53-14-7.76,0-13.23,3-13.83,10.48H659c.61-16.56,12.16-26.29,34.05-26.29s32.38,9.42,32.38,28.88v52.6H709.64l-2-8.21h-4.41l-4.41,4.41c-3.64,3.64-9.42,5.32-17.17,5.32-17.18,0-26.3-8.21-26.3-23.11m-196.81-12h-9v33.6H429.07V52.39h20.52v60.66h9.27l21-28.12h23.41L476,122.18l28.12,42.71H480Zm-124.45-6.38c0-28.13,13.07-41.5,38-41.5,22.8,0,34.81,11.25,35.42,32.07H387.62c-.92-10.18-6.09-14.74-15.51-14.74-11.71,0-16.87,7-16.87,24.17s5.16,24.17,16.87,24.17c9.58,0,14.9-4.56,15.66-15.66H408c-.61,21.58-12.93,33-35.88,33-24.93,0-38-13.53-38-41.5m-37.21-9.43c-.31-10.94-5.63-16.87-16.27-16.87-10.18,0-15.81,5.32-17.63,16.87Zm-54.58,9.43c0-28.13,13.23-41.5,38.31-41.5,26,0,38,14,35.12,45H262.54c.76,15.81,6.39,22.49,18.24,22.49,8.67,0,14.44-3.49,15.81-10.64h18.85c-1.82,16.57-14.44,26.15-35.27,26.15-24.77,0-37.85-13.53-37.85-41.5M152.77,52.39h20.52V79l-1.82,13.07,4.26,1.07,4.41-4.41c3.8-3.8,9.12-5.32,16.26-5.32,17.18,0,25.38,9,25.38,27.06v54.42H201.26V115.94c0-9.88-4.25-14.29-13.37-14.29-9.73,0-14.6,4.86-14.6,14.29v48.95H152.77ZM55,112.44c0-38.15,12.31-54.87,40.44-54.87,25.23,0,37.39,13.68,38.45,42.26H113.07c-.76-15.81-6.24-23.11-17.63-23.11-13.38,0-18.7,9.88-18.7,35.72,0,26.61,5,35.73,18.7,35.73,11.7,0,17-6.54,17.93-23.41H134.5c-1.22,28.88-13.83,42.56-39.06,42.56C67.31,167.32,55,150.6,55,112.44" transform="translate(-55 -52.39)"/><path class="cls-2" d="M927.57,62.93l-45.7,49.44a2.67,2.67,0,0,1-3.54.1L854.85,85.25l-.12-.13a10.19,10.19,0,0,0-15.09.74A9.91,9.91,0,0,0,837.41,93a10.74,10.74,0,0,0,3.18,6.8l27,23.25a2.55,2.55,0,0,1,.73,1.79,2.59,2.59,0,0,1-.64,1.72l-27,23.24-.12.12a10.77,10.77,0,0,0-3.13,7.42,10,10,0,0,0,3.14,7.5,10.19,10.19,0,0,0,3.28,2,10.35,10.35,0,0,0,7.51-.06,10.22,10.22,0,0,0,3.44-2.31l23.47-27.21a2.65,2.65,0,0,1,3.51-.08l23.49,27.24.11.12a10.18,10.18,0,0,0,10.89,2.3,10,10,0,0,0,3.27-2,9.89,9.89,0,0,0,3.15-7.5,10.86,10.86,0,0,0-3.19-7.49l-27-23.22a2.55,2.55,0,0,1-.73-1.79,2.5,2.5,0,0,1,.67-1.74l49.39-45.64A10.77,10.77,0,0,0,945,70.76a10,10,0,0,0-2.23-7.18h0a10.25,10.25,0,0,0-7.42-3.71h-.47a10.32,10.32,0,0,0-7.28,3.07" transform="translate(-55 -52.39)"/><path class="cls-3" d="M945,70.76a10,10,0,0,0-2.23-7.18h0a10.25,10.25,0,0,0-7.42-3.71h-.47a10.32,10.32,0,0,0-7.28,3.07l-45.7,49.44a2.67,2.67,0,0,1-3.54.1L854.85,85.25l-.12-.13a10.19,10.19,0,0,0-15.09.74A9.91,9.91,0,0,0,837.41,93a10.74,10.74,0,0,0,3.18,6.8l20.62,17.76,7.83,6.74a16.92,16.92,0,0,0,22.55-.39l6-5.59,44.21-40.86A10.73,10.73,0,0,0,945,70.76" transform="translate(-55 -52.39)"/></svg>
